!!!COM: Anon.
!!!OTL: Que tens tu, o/ Juliana
!!!OTL: Romanceiro Folclorico do Brasil
!!!CNT: Brasil
!!!OCY: Brasil
!!!ODT: <1971///
!!!PSR: Irmaos Vitale
!!!PSP: Sao Paulo, Brasil
!!!PDT: 1949///
!!!PPE: Rossini Tavares de Lima
!!!PPG: pages 17-18
!! Romance: Juliana E D. Jorge
!! Place: Entre-Rios, Mato Grosso, Brasil
**kern
*clefG2
*k[b-e-a-]
*M3/4
*MM??
=1-
4c
4e-
4g
=
4cc
4cc
4cc
=
4cc
2dd
=
4ff
4dd
4bn
=
4a-
4g
4f
=
2.e-
=
4c
4e-
4g
=
4cc
4cc
4en
=
4f
2f
=
4ff
4dd
4bn
=
4a-
4g
4g
=
2c
==
*-
